X:79
T: ICH MUSS MICH UMSCHAUEN
N: E0685C
O: Europa, Mitteleuropa, Deutschland, Brandenburg
R: Liebes - Lied, Leid, Klage, Trennung
M: 3/8
L: 1/16
K: G
GA | B3cBA | AGG2
A2 | c2c2B2 | A4
AB | c2c2dc | B2d2
AA | G2B2A2 | G4

